img/svg/net/globalmojo.svg

<?xml version="1.0" encoding="iso-8859-1"?>
<!-- Generator: Adobe Illustrator 21.0.2, SVG Export Plug-In . SVG Version: 6.00 Build 0)  -->
<svg version="1.1" id="&#x56FE;&#x5C42;_1" xmlns="http://www.w3.org/2000/svg" xmlns:xlink="http://www.w3.org/1999/xlink" x="0px"
	 y="0px" viewBox="0 0 16 16" style="enable-background:new 0 0 16 16;" xml:space="preserve">
<path d="M9.668,9.635c-0.171,1.278-0.34,2.531-1.108,3.605c-1.228,1.718-4.045,2.45-5.975,0.943
	c-1.894-1.479-2.101-3.964-0.563-5.797C2.993,7.229,4.25,6.651,5.731,6.55C6.29,6.512,6.527,6.234,6.539,5.747
	C6.57,4.562,7.035,3.541,7.745,2.635c0.764-0.973,2.562-2.022,4.429-1.471c1.277,0.377,2.6,1.716,2.791,3.231
	c0.32,2.534-1.63,4.426-3.662,4.957C10.769,9.492,10.21,9.544,9.668,9.635z M9.639,6.462c0.524-0.058,0.993-0.065,1.438-0.169
	c1.059-0.247,1.862-0.818,2.177-1.913c0.191-0.662-0.233-1.454-0.89-1.579c-0.569-0.108-1.124-0.004-1.577,0.405
	C9.853,4.052,9.565,5.13,9.639,6.462z M6.443,9.656c-1.047-0.228-2.627,0.371-3.159,0.999c-0.559,0.66-0.68,1.595-0.232,2.109
	c0.532,0.61,1.245,0.653,2.071,0.066C6.21,12.057,6.385,10.894,6.443,9.656z M4.504,13.792c1.488,0.01,2.507-1.219,2.726-2.825
	C7.435,9.454,7.438,7.911,7.487,6.38c0.051-1.598,0.574-2.96,1.861-3.972c0.34-0.268,0.712-0.496,1.07-0.743
	C9.495,1.792,8.72,2.203,8.146,2.908C7.262,3.994,6.907,5.275,6.903,6.659C6.9,7.813,6.924,8.968,6.895,10.122
	c-0.022,0.853-0.184,1.72-0.761,2.361C5.637,13.036,4.964,13.432,4.504,13.792z M13.702,4.93c-0.736,1.26-1.89,1.809-3.283,1.99
	c-0.223,0.029-0.425,0.213-0.637,0.325C11.786,7.379,13.546,6.56,13.702,4.93z M1.605,10.628C2.291,8.956,3.468,8.055,5.021,7.58
	C5.188,7.528,5.31,7.332,5.533,7.131C3.086,7.44,1.771,8.921,1.605,10.628z"/>
</svg>

<svg xmlns="http://www.w3.org/2000/svg" viewBox="0 0 16 16"><title>globalmojo</title><path d="M9.67,9.64a7.64,7.64,0,0,1-1.11,3.6,4.32,4.32,0,0,1-6,.94A3.92,3.92,0,0,1,2,8.39,5.09,5.09,0,0,1,5.73,6.55a.75.75,0,0,0,.81-.8A5.19,5.19,0,0,1,7.75,2.64a4.36,4.36,0,0,1,4.43-1.47A4.17,4.17,0,0,1,15,4.4a4.68,4.68,0,0,1-3.66,5C10.77,9.49,10.21,9.54,9.67,9.64Zm0-3.17a12.78,12.78,0,0,0,1.44-.17,2.69,2.69,0,0,0,2.18-1.91,1.28,1.28,0,0,0-.89-1.58,1.77,1.77,0,0,0-1.58.41A3.78,3.78,0,0,0,9.64,6.46ZM6.44,9.66a3.94,3.94,0,0,0-3.16,1,1.7,1.7,0,0,0-.23,2.11,1.41,1.41,0,0,0,2.07.07A3.7,3.7,0,0,0,6.44,9.66ZM4.5,13.79C6,13.8,7,12.57,7.23,11a44.69,44.69,0,0,0,.26-4.59,5,5,0,0,1,1.86-4c.34-.27.71-.5,1.07-.74A3.44,3.44,0,0,0,8.15,2.91,5.78,5.78,0,0,0,6.9,6.66c0,1.15,0,2.31,0,3.46a3.57,3.57,0,0,1-.76,2.36A11.4,11.4,0,0,1,4.5,13.79Zm9.2-8.86a4.13,4.13,0,0,1-3.28,2,2.16,2.16,0,0,0-.64.33C11.79,7.38,13.55,6.56,13.7,4.93Zm-12.1,5.7A5,5,0,0,1,5,7.58c.17-.05.29-.25.51-.45C3.09,7.44,1.77,8.92,1.61,10.63Z"/></svg>
